src/images/Icon-Account.svg

<?xml version="1.0" encoding="UTF-8"?>
<svg width="45px" height="58px" viewBox="0 0 45 58" version="1.1" xmlns="http://www.w3.org/2000/svg" xmlns:xlink="http://www.w3.org/1999/xlink">
    <!-- Generator: Sketch 50.2 (55047) - http://www.bohemiancoding.com/sketch -->
    <title>Icon-Account</title>
    <desc>Created with Sketch.</desc>
    <defs></defs>
    <g id="Icon-Account" stroke="none" stroke-width="1" fill="none" fill-rule="evenodd">
        <path d="M21.6735056,6.6962426 C20.6616637,8.13967386 20.1476877,10.2226351 20.1315777,12.9451263 C20.7163237,12.8821423 21.3219361,12.85 21.947191,12.85 C22.6500641,12.85 23.4091555,12.9202729 24.1575791,13.070374 C25.1046087,10.5758042 27.6691571,8.63319676 29.5020867,7.67626882 C29.1790508,7.19767388 28.9904494,6.62086204 28.9904494,6 C28.9904494,4.34314575 30.3335952,3 31.9904494,3 C33.6473037,3 34.9904494,4.34314575 34.9904494,6 C34.9904494,7.65685425 33.6473037,9 31.9904494,9 C31.3200609,9 30.7010306,8.78010885 30.2015496,8.4085175 C28.3129444,9.98217199 27.2106167,11.8771103 26.8945664,14.0933324 C27.276839,14.3305205 27.6199324,14.6045074 27.9070225,14.9176966 C31.1910112,15.5258427 33.8668539,19.4179775 33.8668539,23.9182584 C33.8668539,26.8373596 33.3803371,29.2699438 33.0154494,30.3646067 C33.3803371,30.9727528 33.7452247,31.8241573 33.7452247,32.797191 C33.7452247,35.1081461 32.6505618,36.5676966 31.5558989,37.2974719 C31.3126404,40.0949438 29.7314607,41.919382 28.758427,42.7707865 L28.758427,45.4466292 C28.758427,47.1494382 31.7991573,48.2441011 34.5966292,49.338764 C37.880618,50.5550562 41.286236,51.7713483 42.3808989,54.5688202 C42.6697529,55.685375 42.3733433,56.3449707 41.4916701,56.5476074 C40.609997,56.7502441 39.8928298,56.455536 39.3401685,55.6634831 C38.8536517,54.2039326 35.9345506,53.2308989 33.5019663,52.2578652 C29.7314607,50.9199438 25.4744382,49.338764 25.4744382,45.4466292 L25.4744382,41.0679775 L26.2042135,40.5814607 C26.3258427,40.5814607 28.3935393,39.1219101 28.3935393,36.3244382 L28.3935393,35.2297753 L29.366573,34.8648876 C29.4882022,34.7432584 30.461236,34.2567416 30.461236,32.797191 C30.461236,32.3106742 30.0963483,31.8241573 29.9747191,31.7025281 L29.366573,30.9727528 L29.6098315,30.1213483 C29.6098315,30.1213483 30.461236,27.4455056 30.461236,23.7966292 C30.461236,20.7558989 28.758427,17.958427 26.9339888,17.958427 L25.9609551,17.958427 L25.4744382,17.1070225 C25.1095506,16.4988764 23.65,15.8907303 21.7039326,15.8907303 C16.230618,15.8907303 12.9466292,18.8098315 12.9466292,23.7966292 C12.9466292,26.1075843 13.7980337,29.8780899 13.7980337,29.8780899 L14.0412921,30.7294944 L13.4331461,31.3376404 C13.4331461,31.3376404 12.9466292,31.9457865 12.9466292,32.5539326 C12.9466292,33.4053371 14.0412921,34.5 14.527809,34.9865169 L15.1359551,35.4730337 L15.1359551,36.3244382 C15.1359551,39.0002809 17.4469101,40.4598315 17.4469101,40.4598315 L18.1766854,40.9463483 L18.1766854,45.325 C18.1766854,49.338764 13.6764045,51.4064607 9.66264045,53.1092697 C7.95983146,54.0823034 5.40561798,55.2985955 4.91910112,56.15 C4.3612793,56.6484863 3.73987978,56.7810221 3.05490256,56.5476074 C2.36992535,56.3141927 2.01829116,55.7356831 2,54.8120787 C2.85140449,52.744382 5.52724719,51.6497191 8.56797753,50.3117978 C11.4870787,48.9738764 15.1359551,47.3926966 15.1359551,45.4466292 L15.1359551,42.7707865 C14.0412921,41.919382 12.3384831,39.9733146 12.0952247,37.1758427 C11.2438202,36.3244382 9.90589888,34.7432584 9.90589888,32.797191 C9.90589888,31.5808989 10.3924157,30.6078652 10.7573034,29.9997191 C10.5140449,28.6617978 10.0275281,25.9859551 10.0275281,23.9182584 C10.0275281,19.0532623 12.4720015,15.4105029 16.612428,13.785283 C17.0029847,9.92223305 19.0328585,7.37439521 20.7560612,6.0019182 C20.2799997,5.47093278 19.9904494,4.76928043 19.9904494,4 C19.9904494,2.34314575 21.3335952,1 22.9904494,1 C24.6473037,1 25.9904494,2.34314575 25.9904494,4 C25.9904494,5.65685425 24.6473037,7 22.9904494,7 C22.5180056,7 22.0710686,6.89079187 21.6735056,6.6962426 Z" id="Avatar-Icon" fill="#FF5C5D" fill-rule="nonzero"></path>
    </g>
</svg>

<svg viewBox="0 0 45 58" xmlns="http://www.w3.org/2000/svg">
  <path d="M21.674 6.696c-1.012 1.444-1.526 3.527-1.542 6.25.584-.064 1.19-.096 1.815-.096.703 0 1.462.07 2.21.22.948-2.494 3.512-4.437 5.345-5.394a3 3 0 1 1 .7.732c-1.89 1.574-2.991 3.47-3.307 5.685.382.238.725.512 1.012.825 3.284.608 5.96 4.5 5.96 9 0 2.92-.487 5.352-.852 6.447.365.608.73 1.46.73 2.432 0 2.311-1.094 3.77-2.19 4.5-.242 2.798-1.824 4.622-2.797 5.474v2.676c0 1.702 3.041 2.797 5.839 3.892 3.284 1.216 6.69 2.432 7.784 5.23.289 1.116-.008 1.776-.89 1.979-.881.202-1.598-.092-2.15-.885-.487-1.46-3.406-2.432-5.839-3.405-3.77-1.338-8.028-2.92-8.028-6.811v-4.379l.73-.487c.122 0 2.19-1.46 2.19-4.257V35.23l.973-.365c.121-.122 1.094-.608 1.094-2.068 0-.486-.365-.973-.486-1.094l-.608-.73.243-.852s.851-2.675.851-6.324c0-3.041-1.703-5.839-3.527-5.839h-.973l-.487-.851c-.364-.608-1.824-1.216-3.77-1.216-5.473 0-8.757 2.919-8.757 7.906 0 2.31.851 6.081.851 6.081l.243.851-.608.609s-.486.608-.486 1.216c0 .851 1.094 1.946 1.58 2.433l.609.486v.851c0 2.676 2.31 4.136 2.31 4.136l.73.486v4.379c0 4.014-4.5 6.081-8.513 7.784-1.703.973-4.257 2.19-4.744 3.041-.558.498-1.18.631-1.864.398-.685-.234-1.037-.812-1.055-1.736.851-2.068 3.527-3.162 6.568-4.5 2.92-1.338 6.568-2.92 6.568-4.865V42.77c-1.095-.852-2.798-2.798-3.04-5.595-.852-.852-2.19-2.433-2.19-4.379 0-1.216.486-2.19.851-2.797-.243-1.338-.73-4.014-.73-6.082 0-4.865 2.445-8.507 6.585-10.133.391-3.863 2.42-6.41 4.144-7.783a3 3 0 1 1 .917.694z" fill="#FF5C5D" fill-rule="nonzero"/>
</svg>
